X:1
T:Komm, Seele, 76.76 D
T:Johann Wolfgang Franck, 1681
T:Komm, Seele, 76.76 D
T:Public Domain
C:Johann Wolfgang Franck, 1681
Z:Public Domain
%%score ( 1 2 ) ( 3 4 )
L:1/8
M:4/4
K:D
V:1 treble 
V:2 treble 
V:3 bass 
V:4 bass 
V:1
 [DA]2 | [Dd]2 [FA]2 [GB]2 ([FA][EG]) | [DF]4 [DF]2 [DA]2 | [DG]2 (FE) D2 z D x | D6 [DF]2 | %5
 E2 [CA]2 (Bc)(dB) | (c3 B) [EA]2 [Ec]2 | (F^G) [EA]2 [FA]2 [EG]2 | [EA]6 E2 | E2 E2 [EF]2 [^DF]2 | %10
 [EG]4 [EG]2 (BA) | (GF)(GA) [EG]2 [^DF]2 | E6 [B,E]2 | [EA]2 [CE]2 (GF)(GA) | %14
 A,2 ^A,2 [B,F]2 (dc) | (BA)(GF) [DF]2 [CE]2 | D6 |] %17
V:2
 x2 | x8 | x8 | x2 D2 E3 C2 | x8 | E2 F2 E2 x2 | E4 x4 | D2 x6 | x6 E2 | E2 E2 x4 | x6 F2 | %11
 E2 E2 x4 | E6 x2 | x4 D2 E2 | F4 D2 x2 | D2 D2 x4 | D6 |] %17
V:3
 [D,F,]2 | [F,A,]2 [D,D]2 [G,D]2 [A,C]2 | [B,D]4 [B,D]2 [F,D]2 | [G,B,]2 [E,G,]2 A,2 [A,,A,]2 x | %4
 [D,F,]6 [D,A,]2 | [C,A,]2 [F,A,]2 [D,A,]2 [E,^G,]2 | (A,3 B,) [A,C]2 [C,A,]2 | %7
 [D,A,]2 [C,C]2 [D,B,]2 [E,B,]2 | [A,,C]6 [A,,=C]2 | [A,=C]2 [G,B,]2 [F,A,]2 [F,A,]2 | %10
 [E,B,]4 [E,B,]2 [^D,F,]2 | [E,G,]2 [G,,B,]2 [B,,B,]2 [B,,A,]2 | [E,G,]6 [D,G,]2 | %13
 [C,A,]2 [A,,A,]2 [B,,G,]2 [C,E,]2 | [D,F,]2 [C,E,]2 [B,,D,]2 [F,A,]2 | G,2 [E,B,]2 A,2 [A,,G,]2 | %16
 [D,F,]6 |] %17
V:4
 x2 | x8 | x8 | x4 A,2 x3 | x8 | x8 | A,4 x4 | x8 | x8 | x8 | x8 | x8 | x8 | x8 | x8 | G,2 A,2 x4 | %16
 x6 |] %17

